!!!!SEGMENT: pl-wn--sd-xvi-qu-273--087_gomolka-mikolaj--pan-miedzy-wszytkimi.krn
!!!cenid: 15xx:292
!!!COM: Gomółka, Mikołaj
!!!COM-rismid: pe30013343
!!!CDT: ~1535->1591/04/30
!!!CNT: Polish
!!!GTL: Melodiae na psalterz polski
!!!OTL: LXXXVII. Pan między wszytkimi
!!!PDT: 1580
!!!AGN: Sacred
!!!SMS-siglum: PL-Wn
!!!SMS-shelfmark: SD XVI.Qu.273
!!!SMS-shelfwork: 087 G
!!!NIFC-rismid:
!!!ONB-nifc: Melodiae na psalterz polski
**kern	**text	**kern	**text	**kern	**text	**kern	**text
*part4	*part4	*part3	*part3	*part2	*part2	*part1	*part1
*staff4	*staff4	*staff3	*staff3	*staff2	*staff2	*staff1	*staff1
*clefF3	*	*clefC3	*	*clefC2	*	*clefG2	*
*k[]	*	*k[]	*	*k[]	*	*k[]	*
*C:	*	*C:	*	*C:	*	*C:	*
*M4/2	*	*M4/2	*	*M4/2	*	*M4/2	*
*met(C|)	*	*met(C|)	*	*met(C|)	*	*met(C|)	*
=-	=-	=-	=-	=-	=-	=-	=-
1G	Pan	1B	Pan	1d	Pan	1g	Pan
2C	mie-	2c/	mie-	2e/	mie-	2cc	mie-
2F/	-dӡy	2c/	-dӡy	2f	-dӡy	2a	-dӡy
=3-	=3-	=3-	=3-	=3-	=3-	=3-	=3-
2D	wʃᴣyt-	2d	wʃᴣyt-	2f	wʃᴣyt-	2dd	wʃᴣyt-
2G	-ťi-	2d	-ťi-	2g	-ťi-	2b/	-ťi-
2C	-(mi)	2.e	-mi	2g	-mi	2cc	-mi
2E	Miáʃ-	.	.	2g	Miáʃ-	2g	Miáʃ-
.	.	4d	Miáʃ-	.	.	.	.
=4-	=4-	=4-	=4-	=4-	=4-	=4-	=4-
2F	-ty_Ӡy-	1c	-ty	2f	-ty	2a	-ty
2C	.	.	Ӡy-	2e/	Ӡy-	2g	Ӡy-
1D	-do(w_ski-	2B	-do(w-	2.d	-do(w-	2g	-do(w-
.	.	2A	-ski-	.	.	2f	-ski-
.	.	.	.	4c	-ski-	.	.
=5-	=5-	=5-	=5-	=5-	=5-	=5-	=5-
1G	-mi)	1G	-mi)	1B	-mi)	1g	-mi)
1G	Pieť-	1B	Pieť-	1g	Pieť-	1dd	Pieť-
=6-	=6-	=6-	=6-	=6-	=6-	=6-	=6-
2.C	-né	2.c/	-né	2.g	-né	2.ee	-né
4C	Si-	4c/	Si-	4g	Si-	4ee	Si-
2G	-oń-	2B	-oń-	2g	-oń-	2.dd	-oń-
2D	.	2A	.	2f#X	.	.	.
.	.	.	.	.	.	4cc	.
=7-	=7-	=7-	=7-	=7-	=7-	=7-	=7-
2G	-ʃťié	2B	-ʃťié	2g	-ʃťié	2b/	-ʃťié
4c	u-	4e	u-	2g	u-	1cc	u-
4B	.	4d	.	.	.	.	.
4A	.	4c	.	2a	.	.	.
4G	.	4B/	.	.	.	.	.
4F	-mi-	4G	-mi-	2a	-mi-	2dd	-mi-
!	!	!LO:N:vis=2	!	!	!	!	!
4E	.	4A	.	.	.	.	.
=8-	=8-	=8-	=8-	=8-	=8-	=8-	=8-
4D	-ło-	2.A	-ło-	2a	-ło-	2ff	-ło-
4C	.	.	.	.	.	.	.
2D	.	.	.	2f	.	2ff	.
.	.	4B	.	.	.	.	.
!!LO:PB:g=original
4C	.	1c	.	2.g	.	1ee	.
4D	.	.	.	.	.	.	.
4E	.	.	.	.	.	.	.
4F	.	.	.	4a	.	.	.
=9-	=9-	=9-	=9-	=9-	=9-	=9-	=9-
2G	-wał	2B	-wał	2b	-wał	2dd	-wał
2E	bro-	2g	bro-	2b	bro-	2ee	bro-
2F/	.	2f	.	2a	.	4dd	.
.	.	.	.	.	.	4cc	.
2F/	.	2f	.	2a	.	1cc	.
=10-	=10-	=10-	=10-	=10-	=10-	=10-	=10-
1G	.	2e	.	2.g	.	.	.
.	.	2d	.	.	.	2b/	.
.	.	.	.	4f	.	.	.
1C	-ny:	1c	-ny:	1e	-ny:	1cc	-ny:
=11-	=11-	=11-	=11-	=11-	=11-	=11-	=11-
2r	.	2r	.	2r	.	2r	.
4c	Ich	4e	Ich	2g	Ich	1cc	Ich_grunt
4B	.	4d	.	.	.	.	.
4A	grunt	4c	grunt	2a	grunt	.	.
4G	.	4B	.	.	.	.	.
4F	ná	4A	ná	2a	ná	2dd	ná
4E	.	4G	.	.	.	.	.
=12-	=12-	=12-	=12-	=12-	=12-	=12-	=12-
4D	gó-	2.A	gó-	2a	gó-	2ff	gó-
4C	.	.	.	.	.	.	.
2D	-rách	.	.	2f	-rách	2ff	-rách
.	.	4B	-rách	.	.	.	.
4C	świę-	1c	świę-	2.g	świę-	1ee	świę-
4D	.	.	.	.	.	.	.
4E	.	.	.	.	.	.	.
4F	.	.	.	4a	.	.	.
=13-	=13-	=13-	=13-	=13-	=13-	=13-	=13-
2G	-tych	2B	-tych	2b	-tych	2dd	-tych
2E	zá-	2g	zá-	2b	zá-	2ee	zá-
2F/	.	2f	.	2a	.	4dd	.
.	.	.	.	.	.	4cc	.
2F/	-ło-	2f	-ło-	2a	-ło-	1cc	-ło-
=14-	=14-	=14-	=14-	=14-	=14-	=14-	=14-
!	!'ż'	!	!'ż'	!	!'ż'	!	!'ż'
1G	-ӡo-	2e	-ӡo-	2.g	-ӡo-	.	.
.	.	2d	.	.	.	2b/	-ӡo-
.	.	.	.	4f	.	.	.
!!LO:N:vis=00
1C/	-ny.	1c	-ny.	1e	-ny.	1cc	-ny.
=-	=-	=-	=-	=-	=-	=-	=-
*-	*-	*-	*-	*-	*-	*-	*-
!!!RDF**kern: l = terminal long
!!!system-decoration: s1,s2,s3,s4
!!!ENC:Anna Matuszewska
!!!END:2020-02-15
!!!URL-scan: https://polona.pl/item/melodiae-na-psalterz-polski,Nzk3MTM4ODQ/204 Scan on Polona
!!!IIIF: https://polona.pl/iiif/item/Nzk3MTM4ODQ/manifest.json
